src/icons/picture.svg

<?xml version="1.0" encoding="UTF-8"?>
<svg width="20px" height="20px" viewBox="0 0 20 20" version="1.1" xmlns="http://www.w3.org/2000/svg" xmlns:xlink="http://www.w3.org/1999/xlink">
    <!-- Generator: Sketch 48.1 (47250) - http://www.bohemiancoding.com/sketch -->
    <title>picture</title>
    <desc>Created with Sketch.</desc>
    <defs></defs>
    <g id="Hotel-page" stroke="none" stroke-width="1" fill="none" fill-rule="evenodd" transform="translate(-1266.000000, -118.000000)">
        <g id="First-screen" transform="translate(0.000000, 7.000000)" fill="#5B6D7C">
            <g id="Button_photo-gallery-Copy-4" transform="translate(1240.000000, 101.000000)">
                <g id="Group-2" transform="translate(26.000000, 10.000000)">
                    <g id="picture">
                        <g id="Shape">
                            <path d="M0,17.8912955 C0,19.0559869 0.948099714,20 2.10870454,20 L17.8912955,20 C19.0559869,20 20,19.0519003 20,17.8912955 L20,2.10870454 C20,0.944013077 19.0519003,0 17.8912955,0 L2.10870454,0 C0.944013077,0 0,0.948099714 0,2.10870454 C0,2.10870454 0,17.8912955 0,17.8912955 Z M17.8912955,18.998774 L2.10870454,18.998774 C1.49979567,18.998774 1.00122599,18.5002043 1.00122599,17.8912955 L1.00122599,15.2554148 L4.79362485,11.4630159 L8.03432775,14.7037188 C8.23048631,14.8998774 8.54515734,14.8998774 8.7413159,14.7037188 L14.5933796,8.85165509 L18.998774,13.2570494 L18.998774,17.8912955 C18.998774,18.5002043 18.5002043,18.998774 17.8912955,18.998774 Z M2.10870454,1.00122599 L17.8912955,1.00122599 C18.5002043,1.00122599 18.998774,1.49979567 18.998774,2.10870454 L18.998774,11.8389865 L14.9448304,7.78912955 C14.7486718,7.59297098 14.4340008,7.59297098 14.2378423,7.78912955 L8.3857785,13.6411933 L5.1450756,10.4004904 C4.94891704,10.2043318 4.63424602,10.2043318 4.43808745,10.4004904 L1.00122599,13.8373519 L1.00122599,2.10870454 C1.00122599,1.49979567 1.49979567,1.00122599 2.10870454,1.00122599 Z" fill-rule="nonzero"></path>
                            <path d="M6.2,8 C7.63563403,8 8.8,6.83146067 8.8,5.4 C8.8,3.96853933 7.63146067,2.8 6.2,2.8 C4.76853933,2.8 3.6,3.96853933 3.6,5.4 C3.6,6.83146067 4.76436597,8 6.2,8 Z M6.2,3.82247191 C7.07223114,3.82247191 7.77752809,4.53194222 7.77752809,5.4 C7.77752809,6.26805778 7.06805778,6.97752809 6.2,6.97752809 C5.33194222,6.97752809 4.62247191,6.26805778 4.62247191,5.4 C4.62247191,4.53194222 5.32776886,3.82247191 6.2,3.82247191 Z" fill-rule="nonzero"></path>
                        </g>
                    </g>
                </g>
            </g>
        </g>
    </g>
</svg>

<?xml version="1.0" encoding="utf-8"?>
<!-- Generator: Adobe Illustrator 21.1.0, SVG Export Plug-In . SVG Version: 6.00 Build 0)  -->
<svg version="1.1" id="Слой_1" xmlns="http://www.w3.org/2000/svg" xmlns:xlink="http://www.w3.org/1999/xlink" x="0px" y="0px"
	 viewBox="0 0 20 20" enable-background="new 0 0 20 20" xml:space="preserve">
<title>picture</title>
<desc>Created with Sketch.</desc>
<g id="Hotel-page" transform="translate(-1266.000000, -118.000000)">
	<g id="First-screen" transform="translate(0.000000, 7.000000)">
		<g id="Button_photo-gallery-Copy-4" transform="translate(1240.000000, 101.000000)">
			<g id="Group-2" transform="translate(26.000000, 10.000000)">
				<g id="picture">
					<g id="Shape">
						<path fill="#5B6D7C" d="M0,17.9C0,19.1,0.9,20,2.1,20h15.8c1.2,0,2.1-0.9,2.1-2.1V2.1C20,0.9,19.1,0,17.9,0H2.1
							C0.9,0,0,0.9,0,2.1V17.9z M17.9,19H2.1C1.5,19,1,18.5,1,17.9v-2.6l3.8-3.8L8,14.7c0.2,0.2,0.5,0.2,0.7,0l5.9-5.9l4.4,4.4v4.6
							C19,18.5,18.5,19,17.9,19z M2.1,1h15.8C18.5,1,19,1.5,19,2.1v9.7l-4.1-4c-0.2-0.2-0.5-0.2-0.7,0l-5.9,5.9l-3.2-3.2
							c-0.2-0.2-0.5-0.2-0.7,0L1,13.8V2.1C1,1.5,1.5,1,2.1,1z"/>
						<path fill="#5B6D7C" d="M6.2,8c1.4,0,2.6-1.2,2.6-2.6S7.6,2.8,6.2,2.8S3.6,4,3.6,5.4S4.8,8,6.2,8z M6.2,3.8
							c0.9,0,1.6,0.7,1.6,1.6S7.1,7,6.2,7S4.6,6.3,4.6,5.4S5.3,3.8,6.2,3.8z"/>
					</g>
				</g>
			</g>
		</g>
	</g>
</g>
</svg>
